X: 5
T: Big Reel Of Ballynacally, The
Z: Erik-Fiddler
S: https://thesession.org/tunes/133#setting51605
R: reel
M: 4/4
L: 1/8
K: Gmaj
|:DG ~G/G/G A2dc|AG ~G/G/G AG F/G/A|DG ~G/G/G A2dc|BdGE [A2=F2] EF|
DG ~G/G/G A2dc|AG ~G/G/G AGFA|{e}d^cde fded|1 cAFG AGGF:|2 cAFG AGBc||
|:dggf g2dg|~g/g/g ag fdef|~g(3g/f/g/g e [A3a3] g|fdcA BGBd|
g/a/g fg a=ffe|=fgfd efec|d^cde ~f2 ed |1 cAFG AGBc:|2 cAFG AGG2||

%-------------------- TUNE SEPARATOR --------------------%

